svg/business/cash_line.svg

<svg xmlns="http://www.w3.org/2000/svg" width="24" height="24" viewBox="0 0 24 24"><g fill="none" fill-rule="evenodd"><path d="M24,0 L24,24 L0,24 L0,0 L24,0 Z M12.5935,23.2578 L12.5819,23.2595 L12.5109,23.295 L12.4919,23.2987 L12.4767,23.295 L12.4057,23.2595 C12.3958,23.2564 12.387,23.259 12.3821,23.2649 L12.378,23.2758 L12.3609,23.7031 L12.3659,23.7235 L12.3769,23.7357 L12.4805,23.8097 L12.4953,23.8136 L12.5071,23.8097 L12.6107,23.7357 L12.6233,23.7197 L12.6267,23.7031 L12.6096,23.2758 C12.6076,23.2657 12.601,23.2593 12.5935,23.2578 Z M12.8584,23.1453 L12.8445,23.1473 L12.6598,23.2397 L12.6499,23.2499 L12.6472,23.2611 L12.6651,23.6906 L12.6699,23.7034 L12.6784,23.7105 L12.8793,23.8032 C12.8914,23.8069 12.9022,23.803 12.9078,23.7952 L12.9118,23.7812 L12.8777,23.1665 C12.8753,23.1546 12.8674,23.147 12.8584,23.1453 Z M12.143,23.1473 C12.1332,23.1424 12.1222,23.1453 12.1156,23.1526 L12.1099,23.1665 L12.0758,23.7812 C12.0751,23.7927 12.0828,23.8019 12.0926,23.8046 L12.1083,23.8032 L12.3092,23.7105 L12.3186,23.7024 L12.3225,23.6906 L12.3404,23.2611 L12.3372,23.2485 L12.3278,23.2397 L12.143,23.1473 Z"/><path fill="#09244B" d="M20,5 C21.0543909,5 21.9181678,5.81587733 21.9945144,6.85073759 L22,7 L22,17 C22,18.0543909 21.18415,18.9181678 20.1492661,18.9945144 L20,19 L4,19 C2.94563773,19 2.08183483,18.18415 2.00548573,17.1492661 L2,17 L2,7 C2,5.94563773 2.81587733,5.08183483 3.85073759,5.00548573 L4,5 L20,5 Z M17.0027,7 L6.99732,7 L7,7.125 L7,7.125 C7,8.71276 5.71293,10 4.12511,10 L4,9.99731 L4,14.0027 L4.12511,14 L4.12511,14 C5.71293,14 7,15.2872 7,16.875 L6.99732,17 L17.0027,17 L17,16.875 L17,16.875 C17,15.3439071 18.196806,14.0923263 19.7059741,14.0048806 L19.9376,14.000675 L19.9376,14.000675 L20,14.0027 L20,9.99731 L19.8749,10 L19.8749,10 C18.3438071,10 17.0923193,8.80306383 17.0048802,7.29392224 L17.000675,7.06234625 L17.000675,7.06234625 L17.0027,7 Z M19.8749,16 C19.3918,16 19,16.3917 19,16.875 C19,16.9175 19.003,16.9593 19.0088,17 L20,17 L20,16.0088 C19.9592,16.003 19.9175,16 19.8749,16 Z M4.12511,16 C4.08253,16 4.04077,16.003 4,16.0088 L4,17 L4.99125,17 C4.99702,16.9593 5,16.9175 5,16.875 C5,16.3917 4.60824,16 4.12511,16 Z M12,8 C14.2091,8 16,9.79086 16,12 C16,14.2091 14.2091,16 12,16 C9.79086,16 8,14.2091 8,12 C8,9.79086 9.79086,8 12,8 Z M12,10 C10.8954,10 10,10.8954 10,12 C10,13.1046 10.8954,14 12,14 C13.1046,14 14,13.1046 14,12 C14,10.8954 13.1046,10 12,10 Z M4.99125,7 L4,7 L4,7.99123 C4.04077,7.99701 4.08253,8 4.12511,8 C4.60824,8 5,7.60831 5,7.125 L4.99778875,7.0618175 L4.99778875,7.0618175 L4.99125,7 Z M20,7 L19.0088,7 C19.003,7.04073 19,7.08245 19,7.125 C19,7.60831 19.3918,8 19.8749,8 L19.938125,7.9977825 L19.938125,7.9977825 L20,7.99123 L20,7 Z"/></g></svg>

<svg xmlns="http://www.w3.org/2000/svg" width="24" height="24"><g fill="none" fill-rule="evenodd"><path d="M24 0v24H0V0zM12.594 23.258l-.012.002-.071.035-.02.004-.014-.004-.071-.036c-.01-.003-.019 0-.024.006l-.004.01-.017.428.005.02.01.013.104.074.015.004.012-.004.104-.074.012-.016.004-.017-.017-.427c-.002-.01-.009-.017-.016-.018m.264-.113-.014.002-.184.093-.01.01-.003.011.018.43.005.012.008.008.201.092c.012.004.023 0 .029-.008l.004-.014-.034-.614c-.003-.012-.01-.02-.02-.022m-.715.002a.023.023 0 0 0-.027.006l-.006.014-.034.614c0 .012.007.02.017.024l.015-.002.201-.093.01-.008.003-.011.018-.43-.003-.012-.01-.01z"/><path fill="#09244B" d="M20 5a2 2 0 0 1 1.995 1.85L22 7v10a2 2 0 0 1-1.85 1.995L20 19H4a2 2 0 0 1-1.995-1.85L2 17V7a2 2 0 0 1 1.85-1.995L4 5zm-2.997 2H6.997L7 7.125A2.875 2.875 0 0 1 4.125 10L4 9.997v4.006L4.125 14A2.875 2.875 0 0 1 7 16.875L6.997 17h10.006L17 16.875a2.875 2.875 0 0 1 2.706-2.87l.232-.004.062.002V9.997l-.125.003a2.875 2.875 0 0 1-2.87-2.706L17 7.062zm2.872 9a.875.875 0 0 0-.866 1H20v-.991a.888.888 0 0 0-.125-.009m-15.75 0a.888.888 0 0 0-.125.009V17h.991a.875.875 0 0 0-.866-1M12 8a4 4 0 1 1 0 8 4 4 0 0 1 0-8m0 2a2 2 0 1 0 0 4 2 2 0 0 0 0-4M4.991 7H4v.991a.875.875 0 0 0 1-.866l-.002-.063zM20 7h-.991a.875.875 0 0 0 .866 1l.063-.002L20 7.99z"/></g></svg>
